X: 24676
T: MacKinnon's Rant
R: reel
M: 4/4
K: Adorian
g|:e2dBA2Ac|BGdG Bcdg|e2dB A2Ag|f2ed eAAf:|
|:gabg a2ab|gaba geed|1 gabg a2ab|gedBA2Af:|2 gage dege|gedB A2A||

